assets/logos/whatsapp-2.svg

<svg width="80" height="80" viewBox="0 0 80 80" fill="none" xmlns="http://www.w3.org/2000/svg">
<path fill-rule="evenodd" clip-rule="evenodd" d="M62.6748 17.3001C56.6594 11.3058 48.6588 8.00304 40.1344 8C22.5691 8 8.2735 22.2254 8.26739 39.7111C8.26434 45.3008 9.7327 50.7568 12.5212 55.5651L8 72L24.8931 67.5902C29.5472 70.1175 34.7881 71.448 40.1207 71.4496H40.1344C57.6967 71.4496 71.994 57.2226 72 39.7369C72.003 31.2626 68.6919 23.296 62.6748 17.3017V17.3001ZM40.1344 66.0939H40.1237C35.3717 66.0925 30.71 64.8211 26.6427 62.4201L25.6754 61.8484L15.6505 64.4653L18.3259 54.7378L17.6964 53.7403C15.0454 49.5435 13.6443 44.6926 13.6473 39.7127C13.6534 25.18 25.5348 13.3556 40.1452 13.3556C47.2196 13.3587 53.8693 16.1034 58.8702 21.0865C63.8713 26.0681 66.6231 32.692 66.6201 39.7339C66.6139 54.2681 54.7326 66.0925 40.1344 66.0925V66.0939ZM54.6622 46.3532C53.8661 45.9563 49.9516 44.0403 49.2212 43.7757C48.4908 43.5111 47.9607 43.3789 47.4304 44.1726C46.9003 44.9665 45.3739 46.7516 44.9093 47.2792C44.4448 47.8084 43.9803 47.8739 43.1842 47.4768C42.3883 47.08 39.8228 46.2437 36.7806 43.5445C34.4139 41.443 32.8155 38.8489 32.3511 38.0551C31.8866 37.2614 32.3022 36.8325 32.6994 36.4387C33.0569 36.0829 33.4955 35.5127 33.8942 35.0504C34.2932 34.5881 34.4245 34.2567 34.6903 33.7289C34.9563 33.1997 34.8233 32.7376 34.6247 32.3406C34.426 31.9437 32.834 28.0433 32.1692 26.4573C31.5228 24.9124 30.866 25.1222 30.3785 25.0964C29.914 25.0736 29.3838 25.069 28.8521 25.069C28.3204 25.069 27.4585 25.2667 26.7282 26.0605C25.9979 26.8541 23.9412 28.7717 23.9412 32.6705C23.9412 36.5694 26.794 40.3392 27.1927 40.8683C27.5915 41.3975 32.8078 49.4005 40.7945 52.8341C42.6939 53.6506 44.1774 54.1388 45.334 54.5038C47.2411 55.1074 48.9767 55.0223 50.3488 54.8185C51.8784 54.5904 55.0596 52.901 55.7227 51.0504C56.3858 49.1997 56.3858 47.6122 56.1872 47.2822C55.9886 46.9523 55.4569 46.753 54.6608 46.3562L54.6622 46.3532Z" fill="#25D366"/>
</svg>

<svg xmlns="http://www.w3.org/2000/svg" width="80" height="80" fill="none" viewBox="0 0 80 80"><path fill="#25d366" fill-rule="evenodd" d="M62.675 17.3c-6.016-5.994-14.016-9.297-22.54-9.3C22.568 8 8.273 22.225 8.266 39.711a31.53 31.53 0 0 0 4.254 15.854L8 72l16.893-4.41a31.95 31.95 0 0 0 15.228 3.86h.013c17.563 0 31.86-14.227 31.866-31.713.003-8.474-3.308-16.441-9.325-22.435zm-22.54 48.794h-.011a26.55 26.55 0 0 1-13.481-3.674l-.968-.572-10.025 2.617 2.676-9.727-.63-.998a26.2 26.2 0 0 1-4.049-14.027c.006-14.533 11.888-26.357 26.498-26.357 7.075.003 13.724 2.747 18.725 7.73 5.001 4.982 7.753 11.606 7.75 18.648-.006 14.534-11.887 26.359-26.486 26.359m14.527-19.74c-.796-.398-4.71-2.314-5.44-2.578-.731-.265-1.261-.397-1.792.397-.53.794-2.056 2.579-2.52 3.106-.465.53-.93.595-1.726.198s-3.361-1.233-6.403-3.932c-2.367-2.102-3.965-4.696-4.43-5.49s-.049-1.222.348-1.616c.358-.356.797-.926 1.195-1.389.4-.462.53-.793.796-1.321.266-.53.133-.991-.065-1.388-.199-.397-1.791-4.298-2.456-5.884-.646-1.545-1.303-1.335-1.79-1.36a32 32 0 0 0-1.527-.028c-.532 0-1.393.198-2.124.992-.73.793-2.787 2.71-2.787 6.61 0 3.898 2.853 7.668 3.252 8.197.398.53 5.615 8.532 13.601 11.966 1.9.817 3.383 1.305 4.54 1.67 1.907.603 3.643.518 5.015.315 1.53-.229 4.71-1.918 5.374-3.769.663-1.85.663-3.438.464-3.768-.198-.33-.73-.529-1.526-.926z" clip-rule="evenodd"/></svg>
